X: 0
T:Gånglåt efter Skommar Far
S:Efter [[!Pers Hans Olsson]] & [[!Anders Bjernulf]]
S:Efter Skommar Far
Z:Karen Myers (#2315)
Z:Upptecknad 11/2003
Z:Fitted into Sackpipa by Joseph Persie
M:2/4
L:1/16
R:Gånglåt
K:E
EG |: B2BG B2e2 | BcBA G2FG | A2AG F2F2 | BcBA G2EG | B2BG B2e2 |
BcBA G2FG |
K: A
A2AF DEFD | 
K: E
E4- E2EG :: B2B2 c2>c2 | B2BA G2FG | A2AG F2F2 |
BcBA G2EG | B2B2 c2>c2 | B2BA G2FG | 
K: A
A2AF DEFD
K: E 
|1 E4- E2EG :|2 E6 z2 |]
